X: 41459
T: Two Sisters
R: jig
M: 6/8
K: Gmajor
D/F/|:G2B F2A|GBd gdB|G2B F2A|cAG FDB,|
d2B F2A|GBd gdB|cec BdB|AFA dBA:|
Bd^c d2e|dBd gdc|Bd^c d2B|AFA cBA|
Bd^c d2e|dBd gdB|cec BdB|AFA cBA:|

